paymentMethods/payPal.svg

<svg width="128" height="64" viewBox="0 0 128 64" fill="none" xmlns="http://www.w3.org/2000/svg">
<rect width="128" height="64" rx="6" fill="white"/>
<path d="M93.7099 24.6249H87.6615C87.4615 24.6243 87.268 24.6952 87.1158 24.825C86.9636 24.9547 86.8629 25.1346 86.8319 25.3322L84.3888 40.8431C84.3779 40.9079 84.3799 40.9742 84.3948 41.0382C84.4097 41.1023 84.4372 41.1627 84.4756 41.216C84.514 41.2693 84.5626 41.3145 84.6185 41.349C84.6745 41.3834 84.7368 41.4064 84.8017 41.4166H84.8858H87.9903C88.1305 41.4165 88.266 41.3664 88.3725 41.2753C88.4791 41.1841 88.5496 41.058 88.5714 40.9196L89.2634 36.5228C89.2961 36.3267 89.3976 36.1486 89.5496 36.0204C89.7016 35.8922 89.8942 35.8223 90.0931 35.8232H92.0047C95.9885 35.8232 98.2825 33.9115 98.8866 30.0883C99.158 28.4175 98.8866 27.1023 98.1219 26.1847C97.2617 25.1601 95.7324 24.6249 93.7099 24.6249ZM94.4095 30.2871C94.0769 32.4587 92.4214 32.4587 90.8157 32.4587H89.9057L90.5442 28.406C90.5625 28.2875 90.6228 28.1795 90.714 28.1016C90.8052 28.0237 90.9213 27.9812 91.0413 27.9817H91.4618C92.5514 27.9817 93.5837 27.9817 94.1152 28.601C94.4325 28.9834 94.5281 29.5263 94.4095 30.2871V30.2871Z" fill="#009ADE"/>
<path d="M50.5721 24.6249H44.5238C44.3238 24.6243 44.1302 24.6952 43.978 24.825C43.8259 24.9547 43.7252 25.1346 43.6941 25.3322L41.2472 40.8431C41.2369 40.9084 41.2396 40.9751 41.2552 41.0393C41.2708 41.1036 41.299 41.1641 41.3381 41.2174C41.3771 41.2708 41.4264 41.3158 41.483 41.35C41.5396 41.3842 41.6024 41.4068 41.6678 41.4166H41.7442H44.6346C44.8346 41.4172 45.0282 41.3462 45.1803 41.2165C45.3325 41.0867 45.4332 40.9068 45.4643 40.7093L46.1219 36.5037C46.1571 36.309 46.2601 36.1331 46.4127 36.0071C46.5653 35.8811 46.7575 35.8133 46.9553 35.8155H48.867C52.8508 35.8155 55.1524 33.9039 55.7488 30.0806C56.0165 28.4099 55.7488 27.0947 54.9842 26.1771C54.1201 25.1601 52.5946 24.6249 50.5721 24.6249ZM51.268 30.2871C50.9392 32.4587 49.2799 32.4587 47.6779 32.4587H46.7642L47.4065 28.406C47.4248 28.2875 47.485 28.1795 47.5762 28.1016C47.6675 28.0237 47.7836 27.9812 47.9035 27.9817H48.3241C49.4175 27.9817 50.4498 27.9817 51.0003 28.601C51.2947 28.9757 51.3827 29.5263 51.268 30.2871V30.2871Z" fill="#002F87"/>
<path d="M68.6485 30.2184H65.7543C65.6344 30.2179 65.5183 30.2605 65.427 30.3383C65.3358 30.4162 65.2756 30.5242 65.2573 30.6428L65.1464 31.4533L64.9438 31.1627C64.3168 30.249 62.9213 29.9469 61.522 29.9469C58.3257 29.9469 55.5921 32.3709 55.0568 35.7697C54.9054 36.5454 54.9234 37.3446 55.1094 38.1127C55.2955 38.8808 55.6454 39.5997 56.135 40.22C57.022 41.2599 58.2837 41.692 59.7862 41.692C60.5283 41.6954 61.2636 41.5499 61.9485 41.2643C62.6334 40.9786 63.2541 40.5585 63.7739 40.0289L63.6439 40.8356C63.6336 40.9009 63.6363 40.9676 63.6519 41.0318C63.6674 41.0961 63.6956 41.1566 63.7347 41.2099C63.7738 41.2632 63.8231 41.3083 63.8797 41.3424C63.9363 41.3766 63.999 41.3993 64.0644 41.409C64.0911 41.4128 64.1181 41.4128 64.1447 41.409H66.7522C66.9521 41.4096 67.1457 41.3387 67.2979 41.2089C67.4501 41.0792 67.5508 40.8993 67.5818 40.7017L69.1494 30.7842C69.1668 30.6515 69.1312 30.5173 69.0504 30.4106C68.9695 30.304 68.8498 30.2335 68.7173 30.2146L68.6485 30.2184ZM64.615 35.8577C64.5005 36.6376 64.1052 37.349 63.5033 37.858C62.9013 38.367 62.1342 38.6386 61.3461 38.6219C60.9856 38.6589 60.6216 38.6081 60.285 38.4738C59.9484 38.3395 59.6494 38.1257 59.4135 37.8507C59.1775 37.5757 59.0117 37.2476 58.9301 36.8945C58.8485 36.5415 58.8537 36.1739 58.9451 35.8233C59.0556 35.0442 59.446 34.3319 60.0434 33.8197C60.6407 33.3075 61.4042 33.0303 62.191 33.0399C62.5479 33.0235 62.904 33.0855 63.2343 33.2215C63.5646 33.3576 63.861 33.5645 64.1027 33.8275C64.3295 34.1089 64.4927 34.4361 64.5812 34.7865C64.6696 35.1369 64.6811 35.5024 64.615 35.8577V35.8577Z" fill="#002F87"/>
<path d="M111.79 30.2184H108.892C108.772 30.2179 108.656 30.2605 108.565 30.3383C108.474 30.4162 108.413 30.5242 108.395 30.6428L108.269 31.4533L108.066 31.1627C107.439 30.249 106.04 29.9469 104.644 29.9469C101.444 29.9469 98.7107 32.3709 98.1793 35.7697C98.026 36.5454 98.0431 37.345 98.2292 38.1134C98.4154 38.8817 98.7662 39.6005 99.2574 40.22C100.141 41.2599 101.402 41.692 102.905 41.692C103.651 41.6987 104.39 41.5548 105.08 41.2691C105.769 40.9833 106.393 40.5615 106.915 40.0289L106.785 40.8356C106.775 40.9004 106.777 40.9667 106.791 41.0307C106.806 41.0947 106.834 41.1551 106.872 41.2085C106.911 41.2618 106.959 41.307 107.015 41.3414C107.071 41.3759 107.133 41.3988 107.198 41.409H107.282H109.878C110.079 41.4098 110.273 41.3389 110.426 41.2092C110.579 41.0796 110.68 40.8996 110.712 40.7017L112.276 30.7842C112.285 30.7189 112.282 30.6524 112.266 30.5883C112.25 30.5243 112.221 30.4641 112.182 30.4111C112.142 30.3582 112.093 30.3136 112.036 30.2798C111.979 30.2461 111.917 30.2239 111.851 30.2146L111.79 30.2184ZM107.753 35.8577C107.639 36.638 107.244 37.3498 106.642 37.8589C106.04 38.3681 105.272 38.6395 104.484 38.6219C104.123 38.6592 103.759 38.6085 103.423 38.4742C103.086 38.3399 102.787 38.126 102.552 37.8508C102.316 37.5757 102.151 37.2474 102.07 36.8943C101.989 36.5412 101.994 36.1737 102.087 35.8233C102.197 35.0442 102.588 34.3319 103.185 33.8197C103.782 33.3075 104.546 33.0303 105.333 33.0399C105.693 33.0204 106.052 33.0808 106.386 33.217C106.72 33.3532 107.02 33.5617 107.263 33.8275C107.486 34.1107 107.646 34.4387 107.73 34.7891C107.815 35.1395 107.822 35.504 107.753 35.8577V35.8577Z" fill="#009ADE"/>
<path d="M84.0753 30.2183H81.1658C81.0272 30.2195 80.8911 30.2551 80.7697 30.3218C80.6483 30.3885 80.5453 30.4843 80.47 30.6007L76.4517 36.4999L74.7504 30.8186C74.6987 30.6456 74.5927 30.4939 74.4481 30.3858C74.3036 30.2777 74.128 30.219 73.9475 30.2183H71.0839C70.9493 30.2203 70.821 30.2752 70.7266 30.3711C70.6321 30.4669 70.5792 30.5961 70.5792 30.7307C70.5803 30.7839 70.5894 30.8368 70.606 30.8874L73.8137 40.2964L70.7971 44.5479C70.759 44.6021 70.7318 44.6633 70.7173 44.728C70.7028 44.7927 70.7012 44.8597 70.7125 44.925C70.7239 44.9903 70.748 45.0528 70.7835 45.1088C70.819 45.1648 70.8652 45.2132 70.9195 45.2514C71.0042 45.3119 71.1059 45.344 71.2101 45.3431H74.1196C74.2548 45.3432 74.388 45.3106 74.5078 45.248C74.6277 45.1854 74.7306 45.0948 74.8077 44.9837L84.4882 31.0098C84.5636 30.899 84.5922 30.763 84.5679 30.6313C84.5435 30.4996 84.4682 30.3828 84.3582 30.3063C84.2754 30.2482 84.1765 30.2175 84.0753 30.2183V30.2183Z" fill="#002F87"/>
<path d="M115.204 25.0492L112.719 40.8431C112.709 40.9084 112.712 40.9751 112.727 41.0393C112.743 41.1036 112.771 41.1641 112.81 41.2174C112.849 41.2708 112.898 41.3158 112.955 41.35C113.012 41.3842 113.074 41.4068 113.14 41.4166C113.166 41.4203 113.193 41.4203 113.22 41.4166H115.717C115.917 41.4172 116.11 41.3462 116.262 41.2165C116.414 41.0867 116.515 40.9068 116.546 40.7093L118.993 25.1983C119.004 25.1335 119.002 25.0672 118.987 25.0032C118.972 24.9392 118.945 24.8788 118.906 24.8254C118.868 24.7721 118.819 24.7269 118.763 24.6925C118.707 24.658 118.645 24.6351 118.58 24.6249H118.496H115.701C115.581 24.6244 115.465 24.6669 115.374 24.7448C115.283 24.8227 115.223 24.9307 115.204 25.0492V25.0492Z" fill="#009ADE"/>
<path d="M29.3837 25.4355C29.7086 23.3595 29.3837 21.9487 28.2558 20.6679C27.0209 19.2571 24.7881 18.6569 21.9436 18.6569H13.6357C13.3529 18.657 13.0794 18.7579 12.8642 18.9415C12.6491 19.125 12.5065 19.3793 12.4619 19.6586L9.00953 41.5582C8.99425 41.6506 8.99737 41.7451 9.01871 41.8363C9.04006 41.9275 9.07921 42.0136 9.13392 42.0896C9.18863 42.1656 9.25782 42.2301 9.33751 42.2793C9.41721 42.3285 9.50584 42.3615 9.59831 42.3763H9.70919H14.8324L14.4806 44.6168C14.4552 44.7789 14.4947 44.9445 14.5906 45.0776C14.6866 45.2107 14.8311 45.3007 14.9929 45.3279H15.0962H19.4126C19.6595 45.3274 19.8982 45.239 20.086 45.0786C20.2737 44.9182 20.3982 44.6962 20.4372 44.4524L20.4793 44.2344L21.2936 39.0922L21.3434 38.8092C21.3823 38.565 21.5067 38.3426 21.6943 38.1816C21.882 38.0205 22.1207 37.9313 22.368 37.9299H23.0141C27.1968 37.9299 30.4695 36.2324 31.4253 31.3195C31.8076 29.2664 31.6164 27.5536 30.5612 26.3492C30.2267 25.9749 29.8262 25.6652 29.3798 25.4355" fill="#009ADE"/>
<path d="M29.3837 25.4355C29.7086 23.3595 29.3837 21.9487 28.2558 20.6679C27.0209 19.2571 24.7881 18.6569 21.9436 18.6569H13.6357C13.3529 18.657 13.0794 18.7579 12.8642 18.9415C12.6491 19.125 12.5065 19.3793 12.4619 19.6586L9.00953 41.5582C8.99425 41.6506 8.99737 41.7451 9.01871 41.8363C9.04006 41.9275 9.07921 42.0136 9.13392 42.0896C9.18863 42.1656 9.25782 42.2301 9.33751 42.2793C9.41721 42.3285 9.50584 42.3615 9.59831 42.3763H9.70919H14.8324L16.1208 34.2175L16.0787 34.4737C16.1225 34.1947 16.2643 33.9405 16.4788 33.7569C16.6933 33.5732 16.9663 33.4722 17.2486 33.472H19.6802C24.4631 33.472 28.2061 31.5298 29.2995 25.9134C29.3301 25.749 29.3569 25.5884 29.3837 25.4278" fill="#002169"/>
<path d="M17.501 25.4623C17.5407 25.2188 17.6655 24.9972 17.853 24.8369C18.0406 24.6767 18.2789 24.588 18.5256 24.5867H25.0251C25.7431 24.5816 26.4604 24.634 27.17 24.7435C27.3573 24.7741 27.5523 24.8085 27.7167 24.8467C27.8811 24.8849 28.0685 24.9308 28.2329 24.9805L28.4775 25.057C28.7882 25.1597 29.0899 25.2876 29.3798 25.4393C29.7048 23.3633 29.3798 21.9525 28.2329 20.6717C27.0209 19.2609 24.7881 18.6569 21.9436 18.6569H13.6357C13.3529 18.657 13.0794 18.7579 12.8642 18.9415C12.6491 19.125 12.5065 19.3793 12.4619 19.6586L9.00953 41.5582C8.99425 41.6506 8.99737 41.7451 9.01871 41.8363C9.04006 41.9275 9.07921 42.0136 9.13392 42.0896C9.18863 42.1656 9.25782 42.2301 9.33751 42.2793C9.41721 42.3285 9.50584 42.3615 9.59831 42.3763H9.70919H14.8324L16.1208 34.2175L17.501 25.4623Z" fill="#002F87"/>
</svg>

<svg xmlns="http://www.w3.org/2000/svg" width="128" height="64" fill="none"><rect width="128" height="64" fill="#fff" rx="6"/><path fill="#009ADE" d="M93.71 24.625h-6.048a.837.837 0 0 0-.83.707l-2.443 15.511a.497.497 0 0 0 .413.574h3.188a.589.589 0 0 0 .581-.497l.692-4.397a.838.838 0 0 1 .83-.7h1.912c3.984 0 6.278-1.912 6.882-5.735.271-1.67 0-2.986-.765-3.903-.86-1.025-2.39-1.56-4.412-1.56Zm.7 5.662c-.333 2.172-1.989 2.172-3.594 2.172h-.91l.638-4.053a.501.501 0 0 1 .497-.424h.42c1.09 0 2.123 0 2.654.619.318.382.413.925.294 1.686Z"/><path fill="#002F87" d="M50.572 24.625h-6.048a.837.837 0 0 0-.83.707l-2.447 15.511a.5.5 0 0 0 .42.574h2.967a.837.837 0 0 0 .83-.708l.658-4.205a.837.837 0 0 1 .833-.688h1.912c3.984 0 6.285-1.912 6.882-5.735.267-1.671 0-2.986-.765-3.904-.864-1.017-2.39-1.552-4.412-1.552Zm.696 5.662c-.329 2.172-1.988 2.172-3.59 2.172h-.914l.642-4.053a.5.5 0 0 1 .498-.424h.42c1.093 0 2.126 0 2.676.619.295.375.383.925.268 1.686ZM68.648 30.218h-2.894a.501.501 0 0 0-.497.425l-.11.81-.203-.29c-.627-.914-2.023-1.216-3.422-1.216-3.196 0-5.93 2.424-6.465 5.823a5.488 5.488 0 0 0 1.078 4.45c.887 1.04 2.149 1.472 3.651 1.472a5.552 5.552 0 0 0 3.988-1.663l-.13.807a.5.5 0 0 0 .42.573.284.284 0 0 0 .08 0h2.608a.837.837 0 0 0 .83-.707l1.567-9.918a.51.51 0 0 0-.432-.57l-.069.004Zm-4.033 5.64a3.235 3.235 0 0 1-3.269 2.764 2.245 2.245 0 0 1-2.4-2.799 3.238 3.238 0 0 1 3.245-2.783 2.445 2.445 0 0 1 1.912.788 2.506 2.506 0 0 1 .512 2.03Z"/><path fill="#009ADE" d="M111.79 30.218h-2.898a.5.5 0 0 0-.497.425l-.126.81-.203-.29c-.627-.914-2.026-1.216-3.422-1.216-3.2 0-5.933 2.424-6.465 5.823a5.46 5.46 0 0 0 1.078 4.45c.884 1.04 2.145 1.472 3.648 1.472a5.553 5.553 0 0 0 4.01-1.663l-.13.807a.507.507 0 0 0 .23.506.494.494 0 0 0 .183.067h2.68a.842.842 0 0 0 .834-.707l1.564-9.918a.517.517 0 0 0-.094-.373.507.507 0 0 0-.331-.196l-.061.003Zm-4.037 5.64a3.233 3.233 0 0 1-3.269 2.764 2.238 2.238 0 0 1-2.397-2.799 3.237 3.237 0 0 1 3.246-2.783 2.437 2.437 0 0 1 1.93.788 2.496 2.496 0 0 1 .49 2.03Z"/><path fill="#002F87" d="M84.075 30.218h-2.91a.838.838 0 0 0-.695.383L76.452 36.5l-1.702-5.681a.841.841 0 0 0-.802-.6h-2.864a.512.512 0 0 0-.478.668l3.208 9.41-3.017 4.25a.506.506 0 0 0 .413.796h2.91a.837.837 0 0 0 .688-.36l9.68-13.973a.509.509 0 0 0-.13-.704.486.486 0 0 0-.283-.088Z"/><path fill="#009ADE" d="m115.204 25.05-2.485 15.793a.51.51 0 0 0 .236.507.5.5 0 0 0 .185.067.29.29 0 0 0 .08 0h2.497a.835.835 0 0 0 .829-.708l2.447-15.51a.493.493 0 0 0-.23-.507.494.494 0 0 0-.183-.067h-2.879a.5.5 0 0 0-.497.424ZM29.384 25.436c.325-2.076 0-3.487-1.128-4.768-1.235-1.41-3.468-2.011-6.312-2.011h-8.308a1.19 1.19 0 0 0-1.174 1.002l-3.452 21.9a.711.711 0 0 0 .588.817h5.234l-.351 2.24a.623.623 0 0 0 .512.712h4.42a1.04 1.04 0 0 0 1.024-.876l.042-.218.815-5.142.05-.283a1.043 1.043 0 0 1 1.024-.88h.646c4.183 0 7.456-1.697 8.411-6.61.383-2.053.191-3.765-.864-4.97a4.1 4.1 0 0 0-1.181-.913"/><path fill="#002169" d="M29.384 25.436c.325-2.076 0-3.487-1.128-4.768-1.235-1.41-3.468-2.011-6.312-2.011h-8.308a1.19 1.19 0 0 0-1.174 1.002l-3.452 21.9a.711.711 0 0 0 .588.817h5.234l1.289-8.158-.042.256a1.185 1.185 0 0 1 1.17-1.002h2.431c4.783 0 8.526-1.942 9.62-7.559.03-.164.057-.325.084-.485"/><path fill="#002F87" d="M17.501 25.462a1.044 1.044 0 0 1 1.025-.875h6.5c.717-.005 1.434.047 2.144.157a8.517 8.517 0 0 1 1.063.237l.245.076c.31.103.612.23.902.382.325-2.076 0-3.486-1.147-4.767-1.212-1.411-3.445-2.015-6.29-2.015h-8.307a1.19 1.19 0 0 0-1.174 1.002l-3.452 21.9a.711.711 0 0 0 .588.817h5.234l1.289-8.158 1.38-8.756Z"/></svg>
